assets/icons/24px/stroke/radio-24px.svg

<svg width="24" height="24" viewBox="0 0 24 24" fill="none" xmlns="http://www.w3.org/2000/svg">
<path fill-rule="evenodd" clip-rule="evenodd" d="M6.33771 4.94055C6.72192 5.33729 6.71177 5.97037 6.31503 6.35459C4.82646 7.79616 3.90912 9.79355 3.90912 11.9999C3.90912 14.1656 4.793 16.1298 6.23332 17.5649C6.62457 17.9547 6.62574 18.5878 6.23593 18.9791C5.84613 19.3703 5.21297 19.3715 4.82172 18.9817C3.02384 17.1904 1.90912 14.7237 1.90912 11.9999C1.90912 9.22472 3.06612 6.71679 4.92368 4.91788C5.32041 4.53366 5.9535 4.54382 6.33771 4.94055Z" fill="white"/>
<path fill-rule="evenodd" clip-rule="evenodd" d="M17.6624 19.0594C17.2781 18.6627 17.2883 18.0296 17.685 17.6454C19.1736 16.2038 20.0909 14.2064 20.0909 12.0001C20.0909 9.83437 19.2071 7.87016 17.7667 6.43514C17.3755 6.04534 17.3743 5.41218 17.7641 5.02093C18.1539 4.62969 18.7871 4.62852 19.1783 5.01832C20.9762 6.80958 22.0909 9.27628 22.0909 12.0001C22.0909 14.7753 20.9339 17.2832 19.0764 19.0821C18.6796 19.4663 18.0466 19.4562 17.6624 19.0594Z" fill="white"/>
<path fill-rule="evenodd" clip-rule="evenodd" d="M8.73049 7.32703C9.1147 7.72377 9.10455 8.35685 8.70781 8.74106C7.84664 9.57505 7.31824 10.7277 7.31824 12C7.31824 13.2489 7.82738 14.3824 8.66054 15.2124C9.05179 15.6022 9.05295 16.2354 8.66315 16.6267C8.27335 17.0179 7.64018 17.0191 7.24894 16.6293C6.05822 15.4429 5.31824 13.807 5.31824 12C5.31824 10.1589 6.0863 8.49567 7.31646 7.30435C7.71319 6.92014 8.34628 6.93029 8.73049 7.32703Z" fill="white"/>
<path fill-rule="evenodd" clip-rule="evenodd" d="M15.2696 16.673C14.8854 16.2762 14.8955 15.6432 15.2923 15.2589C16.1534 14.425 16.6818 13.2723 16.6818 12C16.6818 10.7511 16.1727 9.61765 15.3395 8.78756C14.9483 8.39775 14.9471 7.76459 15.3369 7.37335C15.7267 6.9821 16.3599 6.98093 16.7511 7.37074C17.9418 8.55707 18.6818 10.193 18.6818 12C18.6818 13.8411 17.9138 15.5043 16.6836 16.6956C16.2869 17.0799 15.6538 17.0697 15.2696 16.673Z" fill="white"/>
<path d="M14.2727 12.0001C14.2727 13.2336 13.2552 14.2335 12 14.2335C10.7448 14.2335 9.72729 13.2336 9.72729 12.0001C9.72729 10.7666 10.7448 9.7666 12 9.7666C13.2552 9.7666 14.2727 10.7666 14.2727 12.0001Z" fill="white"/>
<path fill-rule="evenodd" clip-rule="evenodd" d="M12 12.2335C12.1836 12.2335 12.2727 12.0963 12.2727 12.0001C12.2727 11.9038 12.1836 11.7666 12 11.7666C11.8164 11.7666 11.7273 11.9038 11.7273 12.0001C11.7273 12.0963 11.8164 12.2335 12 12.2335ZM12 14.2335C13.2552 14.2335 14.2727 13.2336 14.2727 12.0001C14.2727 10.7666 13.2552 9.7666 12 9.7666C10.7448 9.7666 9.72729 10.7666 9.72729 12.0001C9.72729 13.2336 10.7448 14.2335 12 14.2335Z" fill="white"/>
</svg>

<svg width="24" height="24" fill="none" xmlns="http://www.w3.org/2000/svg"><path fill-rule="evenodd" clip-rule="evenodd" d="M6.338 4.94a1 1 0 0 1-.023 1.415A7.831 7.831 0 0 0 3.909 12c0 2.166.884 4.13 2.324 5.565a1 1 0 1 1-1.411 1.417A9.828 9.828 0 0 1 1.909 12a9.831 9.831 0 0 1 3.015-7.082 1 1 0 0 1 1.414.023zm11.324 14.12a1 1 0 0 1 .023-1.415A7.831 7.831 0 0 0 20.091 12c0-2.166-.884-4.13-2.324-5.565a1 1 0 0 1 1.411-1.417A9.827 9.827 0 0 1 22.091 12a9.832 9.832 0 0 1-3.015 7.082 1 1 0 0 1-1.414-.023z" fill="#fff"/><path fill-rule="evenodd" clip-rule="evenodd" d="M8.73 7.327a1 1 0 0 1-.022 1.414 4.517 4.517 0 0 0-.047 6.471 1 1 0 0 1-1.412 1.417 6.517 6.517 0 0 1 .067-9.325 1 1 0 0 1 1.414.023zm6.54 9.346a1 1 0 0 1 .022-1.414 4.517 4.517 0 0 0 .047-6.471 1 1 0 0 1 1.412-1.417 6.517 6.517 0 0 1-.067 9.325 1 1 0 0 1-1.414-.023z" fill="#fff"/><path d="M14.273 12c0 1.234-1.018 2.233-2.273 2.233-1.255 0-2.273-1-2.273-2.233S10.745 9.767 12 9.767c1.255 0 2.273 1 2.273 2.233z" fill="#fff"/><path fill-rule="evenodd" clip-rule="evenodd" d="M12 12.233c.184 0 .273-.137.273-.233s-.09-.233-.273-.233c-.184 0-.273.137-.273.233s.09.233.273.233zm0 2c1.255 0 2.273-1 2.273-2.233S13.255 9.767 12 9.767c-1.255 0-2.273 1-2.273 2.233 0 1.234 1.018 2.233 2.273 2.233z" fill="#fff"/></svg>
